;  Created by Sandify
;  https://sandify.org
;  Version: 0.2.8
;
;  Machine type: Rectangular
;    Min X (mm): 0
;    Max X (mm): 500
;    Min Y (mm): 0
;    Max Y (mm): 500
;  Content type: shape
;  Layer:
;    Shape: Polygon
;    Name: polygon
;    Number of sides: 4
;    Round corners: false
;    Visible: true
;    Initial width: 10
;    Initial height: 10
;    X offset: 0
;    Y offset: 0
;    Rotate (degrees): 0
;    Reverse path: false
;    Number of loops: 10
;    When transforming shape: smear
;    Scale: true
;      Scale (+/-): 100
;      Scale by: constant
;    Spin: false
;    Track: false
;    Fine tuning:
;      Connect to next layer: line
;      Draw portion of path (%): 100
;      Backtrack at end (%): 0
;      Rotate starting point (%): 0
;  Reverse export path: false
;
; File name: 'sandify'
; File type: gcode
;

G1 X257.071 Y257.071
G1 X241.161 Y258.839
G1 X239.393 Y239.393
G1 X262.374 Y237.626
G1 X264.142 Y264.142
G1 X234.090 Y265.910
G1 X232.322 Y232.322
G1 X269.445 Y230.555
G1 X271.213 Y271.213
G1 X227.019 Y272.981
G1 X225.251 Y225.251
G1 X276.517 Y223.483
G1 X278.284 Y278.284
G1 X219.948 Y280.052
G1 X218.180 Y218.180
G1 X283.588 Y216.412
G1 X285.355 Y285.355
G1 X212.877 Y287.123
G1 X211.109 Y211.109
G1 X290.659 Y209.341
G1 X292.426 Y292.426
G1 X205.806 Y294.194
G1 X204.038 Y204.038
G1 X297.730 Y202.270
G1 X299.497 Y299.497
G1 X198.735 Y301.265
G1 X196.967 Y196.967
G1 X304.801 Y195.199
G1 X306.569 Y306.569
G1 X191.664 Y308.336
G1 X189.896 Y189.896
G1 X311.872 Y188.128
G1 X313.640 Y313.640
G1 X184.593 Y315.407
G1 X182.825 Y182.825
G1 X318.943 Y181.057
G1 X320.711 Y320.711
G1 X177.522 Y322.478
G1 X175.754 Y175.754
G1 X326.014 Y173.986

